X:1
T:Endsleigh, 76.76 D
T:Salvatore Ferretti (1817-1874)
T:Endsleigh, 76.76 D
T:Public Domain
C:Salvatore Ferretti (1817-1874)
Z:Public Domain
%%score ( 1 2 ) ( 3 4 )
L:1/8
M:4/4
K:G
V:1 treble 
V:2 treble 
V:3 bass 
V:4 bass 
V:1
 (B>A) | [DG]2 [DG]2 [FA]2 [FA]2 | [GB]4 [DG]2 (G>F) | [CE]2 [EA]2 [DG]2 [DF]2 | [DG]6 (B>A) | %5
 [DG]2 G2 [GA]2 [FA]2 | [GB]4 [DG]2 (G>F) | [CE]2 [EA]2 [DG]2 [DF]2 | [DG]6 (B>c) | %9
 [Gd]2 [Gd]2 [Ee]2 [Ge]2 | G2 z c [GB]2 [^GB]2 | [Ec]2 [Dd]2 [DB]2 [DG]2 | [FA]6 (B>A) | %13
 [DG]2 [DG]2 [FA]2 [FA]2 | [GB]4 [DG]2 (G>F) | [CE]2 [EA]2 [DG]2 [DF]2 | [DG]6 |] %17
V:2
 D2 | x8 | x6 D2 | x8 | x6 D2 | x2 G2 x4 | x6 D2 | x8 | x6 G2 | x8 | d3 F2 x3 | x8 | x6 D2 | x8 | %14
 x6 D2 | x8 | x6 |] %17
V:3
 (G,>A,) | [G,B,]2 [G,B,]2 [D,D]2 [D,D]2 | [G,D]4 [G,B,]2 [B,,G,]2 | %3
 [C,G,]2 [C,C]2 [D,B,]2 [D,A,]2 | [G,B,]6 (D>C) | [G,B,]2 [E,^C]2 [D,D]2 [D,D]2 | %6
 [G,D]4 [G,B,]2 [B,,G,]2 | [C,G,]2 [C,C]2 [D,B,]2 (A,C) | [G,B,]6 (D>C) | %9
 [G,B,]2 [G,B,]2 [C,G,]2 (CB,) | (A,2 D2) [G,D]2 [E,E]2 | [A,C]2 [F,A,]2 G,2 [G,B,]2 | %12
 [D,D]6 (D>C) | [G,B,]2 [G,B,]2 [D,D]2 [D,D]2 | [G,D]4 [G,B,]2 [B,,G,]2 | %15
 [C,G,]2 [C,C]2 [D,B,]2 [D,A,]2 | [G,,B,]6 |] %17
V:4
 G,2 | x8 | x8 | x8 | x6 D,2 | x8 | x8 | x6 D,2 | x6 G,2 | x6 C,2 | D,4 x4 | x4 G,2 x2 | x6 D,2 | %13
 x8 | x8 | x8 | x6 |] %17

